frontend/src/images/home/birds.svg

<svg width="1369" height="378" viewBox="0 0 1369 378" fill="none" xmlns="http://www.w3.org/2000/svg">
<path d="M1067.29 33.5953C1064.58 42.6454 1066.81 46.2623 1077.66 50.4898C1081.92 52.138 1085.47 53.5421 1085.57 53.5878C1085.68 53.6336 1085.68 51.1918 1085.57 48.17C1085.23 37.5328 1093.18 33.7785 1116.48 33.5648C1138.31 33.3512 1139.9 30.4973 1120.86 25.6746C1106 21.9051 1099.38 22.836 1088.2 30.2073C1082.26 34.1295 1075.13 30.2836 1072.71 21.844C1070.3 13.4349 1061.68 0.844238 1058.32 0.844238C1056.06 0.844238 1057.46 4.06441 1063.22 12.1377C1069.84 21.432 1070.26 23.6296 1067.29 33.5953Z" fill="#575757"/>
<path d="M772.022 239.045C761.116 227.446 755.501 220.777 752.239 215.512C743.54 201.502 729.048 188.545 722.069 188.545C720.414 188.545 716.048 188.056 712.397 187.461C694.983 184.607 676.644 185.706 665.722 181.112C659.117 178.335 657.023 178.304 659.425 181.021C662.346 184.317 680.539 187.705 717.704 194.725L718.418 199.685C719.229 205.469 724.017 209.88 729.47 209.895C736.334 209.895 737.471 214.382 737.471 208.812C737.471 202.387 741.625 205.607 751.947 220.014C767.981 242.387 785.882 253.787 772.022 239.045Z" fill="#575757"/>
<path d="M620.734 101.83C615.443 95.9393 616.498 92.3681 624.58 88.8732C636.46 83.7149 657.152 70.5442 657.2 68.0871C657.233 67.0341 638.569 73.0776 623.525 78.9991C609.779 84.4169 606.825 84.9358 604.521 82.3261C602.362 79.8842 600.301 80.2658 598.792 83.3791C596.942 87.2097 598.127 85.3631 576.98 82.3871C559.453 79.9148 553.01 78.4649 548.693 76.0078C544.749 73.7796 542.25 73.3065 542.25 74.7869C542.25 76.1757 555.185 81.3799 563.802 83.4707C568.087 84.4932 573.945 86.3551 576.834 87.5913C589.834 93.1312 594.264 89.1327 599.263 96.565C603.385 102.7 607.718 102.776 610.542 105.966C611.808 107.385 613.317 107.66 616.936 107.126C623.736 106.103 624.093 105.585 620.734 101.83Z" fill="#575757"/>
<path d="M725.574 319.824C719.001 288.828 720.527 291.529 698.909 273.536C673.511 274.223 675.929 272.727 656.698 285.547C643.601 294.276 643.082 296.779 655.74 290.171C672.813 281.274 669.746 282.403 688.847 282.388L689.659 286.096C691.606 294.902 708.728 301.129 708.728 293.025C708.728 284.753 717.346 295.925 719.618 307.127C723.805 327.852 728.949 335.772 725.574 319.824Z" fill="#575757"/>
<path d="M596.522 297.1C580.293 293.956 562.019 296.215 547.64 283.975C543.388 280.358 527.662 270.194 526.932 270.636C520.667 265.661 508.723 246.813 508.723 251.041C508.723 255.94 519.921 265.737 522.598 267.905C524.514 271.048 527.889 273.124 531.46 274.589C545.384 284.967 549.685 290.079 548.954 295.284C547.916 302.67 551.048 306.928 560.542 311.033C571.107 315.597 572.6 315.505 569.111 310.515C563.739 302.838 568.186 301.266 595.775 301.052C604.084 300.991 610.69 300.457 611.112 299.816C612.085 298.336 607.768 299.282 596.522 297.1Z" fill="#575757"/>
<path d="M1360.24 288.05C1355.76 279.687 1349.24 275.093 1341.84 275.093C1334.67 275.093 1328.71 273.002 1327.51 270.072C1326.58 267.813 1322.35 267.844 1320.99 270.133C1320.04 271.72 1319.12 271.522 1313.44 268.5C1306.01 264.578 1302.06 265.356 1296.16 271.965C1286.9 282.266 1295.43 290.889 1305.91 281.823C1312.55 276.085 1315.94 275.856 1315.94 281.121C1315.94 289.012 1320.09 295.009 1326.44 296.276C1329.57 296.902 1333.03 297.756 1334.15 298.153C1335.88 298.779 1336.16 298.199 1336 294.307C1335.46 281.778 1350.72 283.594 1359.32 297.07C1362.21 301.602 1363.91 303.19 1365.92 303.19C1371 303.19 1367.95 302.442 1360.24 288.05Z" fill="#575757"/>
<path d="M660.415 15.8162C675.962 8.87225 685.943 8.15496 687.225 13.9085C688.345 18.9906 694.431 26.6061 697.953 27.3386C704.136 28.6358 710.4 33.9926 707.577 29.0174C705.71 25.7514 706.019 21.0814 708.096 21.0814C711.033 21.0814 718.304 42.0659 718.304 50.5208C718.304 51.7722 720.706 51.4365 720.673 51.1465C720.17 45.2098 714.377 21.2798 712.916 19.0822C708.209 12.0314 694.139 0.615802 690.877 1.211C680.506 3.11869 681.188 -7.1828 656.926 10.9936C641.476 22.5618 642.417 23.8437 660.415 15.8162Z" fill="#575757"/>
<path d="M1006.37 116.602C996.6 116.602 993.355 115.137 985.24 107.079C976.622 98.5175 963.315 98.4411 969.271 106.972C970.829 109.2 972.289 109.872 975.649 109.887C985.873 109.918 986.165 110.33 983.52 121.104C982.335 125.912 987.382 131.528 994.312 133.146C997.525 133.894 1000.69 135.008 1001.34 135.633C1003.09 137.266 1004.91 135.786 1003.32 134C994.182 123.668 1014.08 121.41 1026.98 131.33C1036.31 138.487 1038.68 138.06 1032.21 130.368C1024.01 120.631 1016.46 116.602 1006.37 116.602Z" fill="#575757"/>
<path d="M910.521 158.71C906.902 162.678 903.932 164.936 902.309 164.921C897.1 164.891 891.176 161.991 886.648 157.29C879.004 149.339 859.627 138.534 859.627 142.227C859.627 143.235 874.282 154.65 879.491 157.687C887.703 162.479 889.57 164.982 889.57 171.132C889.57 177.649 891.939 180.595 900.037 184.135C905.863 186.699 908.006 186.806 907.064 184.486C904.744 178.809 913.735 166.386 924.3 160.678C934.41 155.215 950.542 144.333 949.925 143.402C946.598 138.336 919.48 148.881 910.521 158.71Z" fill="#575757"/>
<path d="M1093.76 348.577C1098.48 357.337 1110.41 361.122 1109.23 353.476C1108.11 346.242 1113.51 345.907 1118.24 352.942C1119.96 355.491 1123.12 369.608 1123.12 374.69C1123.12 377.025 1123.61 378.337 1124.32 377.925C1130.75 374.201 1120.91 345.22 1110.83 338.23C1107.38 335.834 1103.81 333.041 1102.91 332.019C1100.92 329.76 1097.27 329.592 1096.39 331.713C1095.97 332.736 1093.1 333.423 1087.89 333.728C1078.25 334.308 1074.47 337.269 1062.39 353.766C1051.19 369.058 1051.83 369.394 1065.85 355.598C1079.93 341.71 1077.89 343.404 1090.37 342.274L1093.76 348.577Z" fill="#575757"/>
<mask id="mask0_942_424" style="mask-type:luminance" maskUnits="userSpaceOnUse" x="-53" y="162" width="107" height="60">
<path d="M-53 162.601H53.8033V221.205H-53V162.601Z" fill="white"/>
</mask>
<g mask="url(#mask0_942_424)">
<path d="M47.263 214.627C45.0883 213.894 39.6354 210.384 35.1399 206.813C19.8522 194.726 23.2278 199.197 11.0723 190.086C8.44315 188.118 4.12623 185.737 1.49712 184.821C-7.68852 181.616 -26.076 176.351 -30.8311 175.542C-35.9433 174.687 -48.7155 169.132 -49.9814 167.209C-51.1174 165.5 -53 165.821 -53 167.728C-53 170.918 -42.4349 173.924 -7.15296 187.98C-5.17301 195.306 -4.44271 202.662 8.55675 206.126C20.0631 209.194 20.0469 210.079 17.3367 206.202C10.1634 195.916 18.067 197.763 35.6268 210.476C50.1518 220.991 55.767 217.526 47.263 214.627Z" fill="#575757"/>
</g>
<path d="M106.712 61.7986C105.836 58.5479 104.748 58.4563 122.47 63.05C147.512 69.5209 135.567 62.9585 99.1818 50.2609C93.6152 48.3227 84.4621 44.5837 78.8144 41.9587C62.7314 34.4653 53.1725 31.7488 48.6446 27.4908C40.173 19.5396 42.3964 29.9785 55.7529 34.5111C67.4703 38.4791 85.0301 49.1011 84.2998 51.7718C82.4172 58.5021 88.8277 63.3705 100.594 64.1641C107.426 64.6372 107.459 64.622 106.712 61.7986Z" fill="#575757"/>
<path d="M337.017 110.682C352.76 103.325 363.941 99.617 364.623 101.509C367.09 108.362 371.277 110.91 382.962 112.65C389.535 113.627 390.119 114.421 393.722 127.408C402.599 159.366 411.752 165.028 396.221 120.067C390.216 102.685 371.877 83.3635 367.739 90.0633C367.138 91.0553 363.893 91.7878 358.829 92.0778C349.351 92.6272 343.347 96 329.195 108.713C317.656 119.06 318.565 119.289 337.017 110.682Z" fill="#575757"/>
<path d="M144.021 285.73C151.583 288.981 153.693 288.035 149.49 283.258C139.038 271.354 160.022 270.622 183.214 250.064L191.929 242.327C168.51 253.758 155.868 258.016 148.305 263.22C135.549 271.995 125.795 264.975 108.219 234.345C95.1224 211.514 98.9525 234.208 115.263 253.132C123.815 263.067 125.454 265.738 125.454 269.843C125.454 277.917 130.307 284.036 136.766 284.128C138.779 284.159 142.041 284.876 144.021 285.73Z" fill="#575757"/>
<path d="M370.872 260.121C367.837 262.792 364.494 264.975 363.472 264.975C360.469 264.975 357.808 263.708 357.808 262.289C357.808 259.297 341.985 230.621 349.385 250.812C354.546 264.883 346.902 271.323 353.507 277.504C358.246 281.93 370.434 282.159 369.266 277.794C367.399 270.804 376.731 265.31 399.403 260.045C418.521 255.604 420.095 253.361 404.515 252.811C387.329 252.201 377.445 254.353 370.872 260.121Z" fill="#575757"/>
<path d="M525.341 214.704C520.277 209.957 523.458 204.936 529.674 207.851C537.366 211.453 542.965 212.399 553.644 217.557C574.32 227.569 550.285 213.803 540.628 207.928C531.881 202.632 517.47 195.963 512 194.681C510.183 194.253 508.398 193.46 508.041 192.91C506.921 191.216 503.805 191.811 501.727 194.101C500.624 195.306 496.226 197.367 491.941 198.679C483.502 201.243 459.727 210.781 457.877 212.323C455.767 214.078 487.316 210.201 490.611 208.294C494.716 205.913 501.971 206.859 505.606 210.263C512.877 217.054 531.735 220.701 525.341 214.704Z" fill="#575757"/>
<path d="M339.633 335.192C354.418 341.709 354.256 339.618 339.244 330.034C325.904 321.533 321.911 320.45 312.352 322.754C304.481 324.647 304.627 324.662 296.123 320.373C291.725 318.145 289.697 317.718 282.962 313.841C277.671 310.804 272.104 310.316 268.875 312.621C263.47 316.482 267.658 319.58 279.229 320.282C289.875 320.923 290.67 321.548 289.826 328.584C288.772 337.298 293.77 342.518 303.183 342.548C307.208 342.548 311.314 343.052 312.304 343.647C316.312 346.074 317.124 344.7 314.138 340.58C306.137 329.53 320.094 326.585 339.633 335.192Z" fill="#575757"/>
<path d="M224.389 113.719C219.179 98.8998 192.872 72.8485 186.218 75.8855C184.758 76.5723 180.846 77.3353 177.552 77.5948C170.314 78.19 154.361 84.3556 147.609 86.828C151.261 87.0721 157.363 87.7589 163.368 86.3396C174.744 83.6536 185.05 84.7066 187.273 88.7967C189.805 93.4056 190.194 93.6498 200.321 96.5037C219.78 101.983 206.878 103.86 228.3 125.882C231.075 128.751 233.25 129.835 233.25 128.354C233.25 128.019 231.432 125.073 229.209 121.807C226.986 118.541 224.811 114.894 224.389 113.719Z" fill="#575757"/>
</svg>

<svg xmlns="http://www.w3.org/2000/svg" width="1369" height="378" fill="none"><path fill="#575757" d="M1067.29 33.595c-2.71 9.05-.48 12.667 10.37 16.895 4.26 1.648 7.81 3.052 7.91 3.098.11.046.11-2.396 0-5.418-.34-10.637 7.61-14.392 30.91-14.605 21.83-.214 23.42-3.068 4.38-7.89-14.86-3.77-21.48-2.839-32.66 4.532-5.94 3.922-13.07.077-15.49-8.363-2.41-8.41-11.03-21-14.39-21-2.26 0-.86 3.22 4.9 11.294 6.62 9.294 7.04 11.492 4.07 21.457Zm-295.268 205.45c-10.906-11.599-16.521-18.268-19.783-23.533-8.699-14.01-23.191-26.967-30.17-26.967-1.655 0-6.021-.489-9.672-1.084-17.414-2.854-35.753-1.755-46.675-6.349-6.605-2.777-8.699-2.808-6.297-.091 2.921 3.296 21.114 6.684 58.279 13.704l.714 4.96c.811 5.784 5.599 10.195 11.052 10.21 6.864 0 8.001 4.487 8.001-1.083 0-6.425 4.154-3.205 14.476 11.202 16.034 22.373 33.935 33.773 20.075 19.031ZM620.734 101.83c-5.291-5.89-4.236-9.462 3.846-12.957 11.88-5.158 32.572-18.329 32.62-20.786.033-1.053-18.631 4.99-33.675 10.912-13.746 5.418-16.7 5.937-19.004 3.327-2.159-2.442-4.22-2.06-5.729 1.053-1.85 3.83-.665 1.984-21.812-.992-17.527-2.472-23.97-3.922-28.287-6.38-3.944-2.227-6.443-2.7-6.443-1.22 0 1.389 12.935 6.593 21.552 8.684 4.285 1.022 10.143 2.884 13.032 4.12 13 5.54 17.43 1.542 22.429 8.974 4.122 6.135 8.455 6.211 11.279 9.401 1.266 1.419 2.775 1.694 6.394 1.16 6.8-1.023 7.157-1.541 3.798-5.296Zm104.84 217.994c-6.573-30.996-5.047-28.295-26.665-46.288-25.398.687-22.98-.809-42.211 12.011-13.097 8.729-13.616 11.232-.958 4.624 17.073-8.897 14.006-7.768 33.107-7.783l.812 3.708c1.947 8.806 19.069 15.033 19.069 6.929 0-8.272 8.618 2.9 10.89 14.102 4.187 20.725 9.331 28.645 5.956 12.697ZM596.522 297.1c-16.229-3.144-34.503-.885-48.882-13.125-4.252-3.617-19.978-13.781-20.708-13.339-6.265-4.975-18.209-23.823-18.209-19.595 0 4.899 11.198 14.696 13.875 16.864 1.916 3.143 5.291 5.219 8.862 6.684 13.924 10.378 18.225 15.49 17.494 20.695-1.038 7.386 2.094 11.644 11.588 15.749 10.565 4.564 12.058 4.472 8.569-.518-5.372-7.677-.925-9.249 26.664-9.463 8.309-.061 14.915-.595 15.337-1.236.973-1.48-3.344-.534-14.59-2.716Zm763.718-9.05c-4.48-8.363-11-12.957-18.4-12.957-7.17 0-13.13-2.091-14.33-5.021-.93-2.259-5.16-2.228-6.52.061-.95 1.587-1.87 1.389-7.55-1.633-7.43-3.922-11.38-3.144-17.28 3.465-9.26 10.301-.73 18.924 9.75 9.858 6.64-5.738 10.03-5.967 10.03-.702 0 7.891 4.15 13.888 10.5 15.155 3.13.626 6.59 1.48 7.71 1.877 1.73.626 2.01.046 1.85-3.846-.54-12.529 14.72-10.713 23.32 2.763 2.89 4.532 4.59 6.12 6.6 6.12 5.08 0 2.03-.748-5.68-15.14ZM660.415 15.816c15.547-6.944 25.528-7.661 26.81-1.908 1.12 5.083 7.206 12.698 10.728 13.43 6.183 1.298 12.447 6.655 9.624 1.68-1.867-3.267-1.558-7.937.519-7.937 2.937 0 10.208 20.985 10.208 29.44 0 1.251 2.402.916 2.369.626-.503-5.937-6.296-29.867-7.757-32.065-4.707-7.05-18.777-18.466-22.039-17.871-10.371 1.908-9.689-8.394-33.951 9.783-15.45 11.568-14.509 12.85 3.489 4.822Zm345.955 100.786c-9.77 0-13.015-1.465-21.13-9.523-8.618-8.561-21.925-8.638-15.969-.107 1.558 2.228 3.018 2.9 6.378 2.915 10.224.031 10.516.443 7.871 11.217-1.185 4.808 3.862 10.424 10.792 12.042 3.213.748 6.378 1.862 7.028 2.487 1.75 1.633 3.57.153 1.98-1.633-9.138-10.332 10.76-12.59 23.66-2.67 9.33 7.157 11.7 6.73 5.23-.962-8.2-9.737-15.75-13.766-25.84-13.766Zm-95.849 42.108c-3.619 3.968-6.589 6.226-8.212 6.211-5.209-.03-11.133-2.93-15.661-7.631-7.644-7.951-27.021-18.756-27.021-15.063 0 1.008 14.655 12.423 19.864 15.46 8.212 4.792 10.079 7.295 10.079 13.445 0 6.517 2.369 9.463 10.467 13.003 5.826 2.564 7.969 2.671 7.027.351-2.32-5.677 6.671-18.1 17.236-23.808 10.11-5.463 26.242-16.345 25.625-17.276-3.327-5.066-30.445 5.479-39.404 15.308Zm183.239 189.867c4.72 8.76 16.65 12.545 15.47 4.899-1.12-7.234 4.28-7.569 9.01-.534 1.72 2.549 4.88 16.666 4.88 21.748 0 2.335.49 3.647 1.2 3.235 6.43-3.724-3.41-32.705-13.49-39.695-3.45-2.396-7.02-5.189-7.92-6.211-1.99-2.259-5.64-2.427-6.52-.306-.42 1.023-3.29 1.71-8.5 2.015-9.64.58-13.42 3.541-25.5 20.038-11.2 15.292-10.56 15.628 3.46 1.832 14.08-13.888 12.04-12.194 24.52-13.324l3.39 6.303Z"/><mask id="a" width="107" height="60" x="-53" y="162" maskUnits="userSpaceOnUse" style="mask-type:luminance"><path fill="#fff" d="M-53 162.601H53.803v58.604H-53v-58.604Z"/></mask><g mask="url(#a)"><path fill="#575757" d="M47.263 214.627c-2.175-.733-7.628-4.243-12.123-7.814-15.288-12.087-11.912-7.616-24.068-16.727-2.629-1.968-6.946-4.349-9.575-5.265-9.186-3.205-27.573-8.47-32.328-9.279-5.112-.855-17.884-6.41-19.15-8.333-1.136-1.709-3.019-1.388-3.019.519 0 3.19 10.565 6.196 45.847 20.252 1.98 7.326 2.71 14.682 15.71 18.146 11.506 3.068 11.49 3.953 8.78.076-7.174-10.286.73-8.439 18.29 4.274 14.525 10.515 20.14 7.05 11.636 4.151Z"/></g><path fill="#575757" d="M106.712 61.799c-.876-3.251-1.964-3.343 15.758 1.251 25.042 6.47 13.097-.091-23.288-12.79-5.567-1.937-14.72-5.676-20.368-8.301-16.083-7.494-25.641-10.21-30.17-14.468-8.471-7.951-6.248 2.488 7.109 7.02C67.47 38.48 85.03 49.101 84.3 51.771c-1.883 6.731 4.528 11.6 16.294 12.393 6.832.473 6.865.458 6.118-2.365Zm230.305 48.883c15.743-7.357 26.924-11.065 27.606-9.173 2.467 6.853 6.654 9.401 18.339 11.141 6.573.977 7.157 1.771 10.76 14.758 8.877 31.958 18.03 37.62 2.499-7.341-6.005-17.382-24.344-36.703-28.482-30.004-.601.992-3.846 1.725-8.91 2.015-9.478.55-15.482 3.922-29.634 16.635-11.539 10.347-10.63 10.576 7.822 1.969ZM144.021 285.73c7.562 3.251 9.672 2.305 5.469-2.472-10.452-11.904 10.532-12.636 33.724-33.194l8.715-7.737c-23.419 11.431-36.061 15.689-43.624 20.893-12.756 8.775-22.51 1.755-40.086-28.875-13.097-22.831-9.266-.137 7.044 18.787 8.552 9.935 10.191 12.606 10.191 16.711 0 8.074 4.853 14.193 11.312 14.285 2.013.031 5.275.748 7.255 1.602Zm226.851-25.609c-3.035 2.671-6.378 4.854-7.4 4.854-3.003 0-5.664-1.267-5.664-2.686 0-2.992-15.823-31.668-8.423-11.477 5.161 14.071-2.483 20.511 4.122 26.692 4.739 4.426 16.927 4.655 15.759.29-1.867-6.99 7.465-12.484 30.137-17.749 19.118-4.441 20.692-6.684 5.112-7.234-17.186-.61-27.07 1.542-33.643 7.31Zm154.469-45.417c-5.064-4.747-1.883-9.768 4.333-6.853 7.692 3.602 13.291 4.548 23.97 9.706 20.676 10.012-3.359-3.754-13.016-9.629-8.747-5.296-23.158-11.965-28.628-13.247-1.817-.428-3.602-1.221-3.959-1.771-1.12-1.694-4.236-1.099-6.314 1.191-1.103 1.205-5.501 3.266-9.786 4.578-8.439 2.564-32.214 12.102-34.064 13.644-2.11 1.755 29.439-2.122 32.734-4.029 4.105-2.381 11.36-1.435 14.995 1.969 7.271 6.791 26.129 10.438 19.735 4.441ZM339.633 335.192c14.785 6.517 14.623 4.426-.389-5.158-13.34-8.501-17.333-9.584-26.892-7.28-7.871 1.893-7.725 1.908-16.229-2.381-4.398-2.228-6.426-2.655-13.161-6.532-5.291-3.037-10.858-3.525-14.087-1.22-5.405 3.861-1.217 6.959 10.354 7.661 10.646.641 11.441 1.266 10.597 8.302-1.054 8.714 3.944 13.934 13.357 13.964 4.025 0 8.131.504 9.121 1.099 4.008 2.427 4.82 1.053 1.834-3.067-8.001-11.05 5.956-13.995 25.495-5.388ZM224.389 113.719c-5.21-14.82-31.517-40.87-38.171-37.834-1.46.687-5.372 1.45-8.666 1.71-7.238.595-23.191 6.76-29.943 9.233 3.652.244 9.754.93 15.759-.488 11.376-2.686 21.682-1.633 23.905 2.457 2.532 4.609 2.921 4.853 13.048 7.707 19.459 5.479 6.557 7.356 27.979 29.378 2.775 2.869 4.95 3.953 4.95 2.472 0-.335-1.818-3.281-4.041-6.547-2.223-3.266-4.398-6.913-4.82-8.088Z"/></svg>
